X:3
T:Ton simple plin
%T:TS3
G:Kazimodal
R:Dañs Plin
C:Traditionnel
Q:C2=160
P:C5
M:4/4
S:Tonioù Breizh-Izel 1213 (Duod)
K:Em
P:C
|: "Em"EB/2B/2 (Bc) "D"Ac ({Bc}"C"B)G |1 "G"EB/2B/2 (Bc) "Am"Ac "Bm"B2 \
	:|2 "Am"EA/2A/2 AB "C"G2 "Em"E2||
|: ({GA}"Em"G/2)F/2G "C"E>E "Am"GE "D"F2 |1 ({Bc}"G"B)E "Am"(FG) "C"AG "D"F2 \
	:|2 "Em"Be "C"(g/2f/2e) "D"fd "A"e2 ||
